X: 3
T: The Gaelic Club
R: jig
M: 6/8
L: 1/8
K: Amin
(A/B/) | cBA AGE | ABA ABc | BAG BdG | Bdg GAB |cBA AGE | ABA c2d | eg/f/e dcB | cAA A2 :||B | ceg gec | ceg dBG | ceg gec | BGG GAB |cBA AGE | ABA c2d | eg/f/e dcB | cAA A2 :||


Tune 782	Setting 27647

